X: 17075
T: Hectic, The
R: reel
M: 4/4
K: Gmajor
|:A3 B cBAG|AEAB cBAG|EDEG D/D/D DG|E/E/E EG DEGB|
A3 B cBAG|A3 B cBAG|AB c/B/A B2 ed|1 cBAG ADEG:|2 cBAG AGAB|
|:c2 ec gcac|B2 eB gBaB|A2 eA gAaA|BGBd eagf|
edeg b2 ag|dBdf a2 gf|egdB c2 Ac|BAGE DEGB:|

